X:1
T:Unto You Is Everlasting Life
T:Unto You Is Everlasting Life
T:William Augustine Ogden
T:William Augustine Ogden, 1890
T:Public Domain Courtesy of the Cyber Hymnal™
T:Public Domain Courtesy of the Cyber Hymnal™
C:William Augustine Ogden
Z:Public Domain
Z:Courtesy of the Cyber Hymnal™
%%score ( 1 2 ) ( 3 4 )
L:1/8
Q:1/4=98
M:4/4
K:Ab
V:1 treble 
V:2 treble 
V:3 bass 
V:4 bass 
V:1
 [CA][DB] | [Ec][DB][CA][DB] [Ec]2 [CA][CA] | [FB][FA][EG][DF] [CE]2 [B,G][CA] | %3
w: 1.~Hear the|prom- ise of the Lord, As re-|cord- ed in His word, “Un- to|
w: 2.~Lit- tle|child- ren on the road To the|ci- ty of our God, “Un- to|
w: 3.~Cast on|Him your load of care, Je- sus|will your bur- den bear, “Un- to|
 [EB]2 [EB]2 [EB][Ec][Ed][Ee] | [Ec]6 [CA][DB] | [Ec][DB][CA][DB] [Ec]2 [CA][CA] | %6
w: you is ev- er- last- ing|life!” Hea- vy|la- den and dis- tressed, Come, and|
w: you is ev- er- last- ing|life!” If on|Je- sus you be- lieve, And His|
w: you is ev- er- last- ing|life!” In the|straight and nar- row way He will|
 [FB][FA][EG][DF] [CE]2 [CE][CE] | [DF]2 [Fd]2 [Ec][EB][EA][DG] | [CA]6 ||"^Refrain" [EG][EA] | %10
w: I will give you rest, “Un- to|you is ev- er- last- ing|life!”||
w: bless- èd word re- ceive, “Un- to|you is ev- er- last- ing|life!”|“Ev- er-|
w: lead you day by day! “Un- to|you is ev- er- last- ing|life!”||
 [EB]2 E2 E[Ed][Ec][EB] | [Ec]6 [EG][EA] | [EB]2 E2 E[Ed][Ec][EB] | [Ec]6 [Ec][Ed] | %14
w: ||||
w: last- ing life,” the prom- ise|reads, While at|God’s right hand the Sav- ior|pleads; Will you|
w: ||||
 [Ee]2 [EA]2 A2 [GB][_Gc] | [Fd]2 [DF]2 [DF]2 [Fd][Fd] | [Ec]2 [EA]2 [Ec][EB][EA][EG] | [EA]6 |] %18
w: ||||
w: come to- day, mak- ing|Christ your stay? For with|Him is ev- er- last- ing|life.|
w: ||||
V:2
 x2 | x8 | x8 | x8 | x8 | x8 | x8 | x8 | x6 || x2 | x2 E2 E x3 | x8 | x2 E2 E x3 | x8 | x4 A2 x2 | %15
 x8 | x8 | x6 |] %18
V:3
 [A,,A,][A,,A,] | [A,,A,][A,,A,][A,,A,][A,,A,] [A,,A,]2 [A,,A,][A,,A,] | %2
 [D,A,][D,A,][D,A,][D,A,] [A,,A,]2 [E,B,][E,B,] | [E,G,]2 [E,G,]2 [E,G,][E,A,][E,B,][E,G,] | %4
 A,6 [A,,A,][A,,A,] | [A,,A,][A,,A,][A,,A,][A,,A,] [A,,A,]2 [A,,A,][A,,A,] | %6
 [D,A,][D,A,][D,A,][D,A,] [A,,A,]2 [A,,A,][A,,A,] | [D,A,]2 [D,A,]2 [E,A,][E,D][E,C][E,B,] | %8
 [A,,A,]6 || [E,B,][E,C] | [E,G,]2 [E,G,]2 [E,G,][E,B,]E,[E,G,] | A,6 [E,B,][E,C] | %12
 [E,G,]2 [E,G,]2 [E,G,][E,B,][E,A,][E,G,] | A,6 A,[A,B,] | [A,C]2 [A,C]2 [A,C]2 [A,D][A,E] | %15
 [D,D]2 [D,A,]2 [D,A,]2 [D,A,][D,A,] | [E,A,]2 [E,C]2 [E,A,][E,D][E,C][E,B,] | [A,,C]6 |] %18
V:4
 x2 | x8 | x8 | x8 | A,6 x2 | x8 | x8 | x8 | x6 || x2 | x8 | (A,A,,C,E, A,2) x2 | x8 | %13
 (A,A,,C,E, A,2) A, x | x8 | x8 | x8 | x6 |] %18

